X:59
T:Apron my Dear, The
M:2/4
L:1/8
B:Thompson's Compleat Collection of 200 Favourite Country Dances, vol. 3 (London, 1773)
Z:Transcribed and edited by Flynn Titford-Mock, 2007
Z:abc's:AK/Fiddler's Companion
K:F
fcBA | "tr"(fcBA) | [C2c2] B2 | AG F2 | fcBA | fcBA | B2 "tr"A2 | G4 :|
|: G2B2 | AFEF | G2B2 | Ac f2 | [C3c3] B | Aage | fB AG | F4 :|

